!!!OTL: Die wiedergefundene Schwester (Suedeli - Ballade) Es wollt en Herr usriten
!!!ARE: Europa, Mitteleuropa, Schweiz, Greyerz, Brienzwyler
!!!YOR: 4, S. 1
!!    ????
!!!SCT: Q0072A
!!!YEM: Copyright 1995, estate of Helmut Schaffrath.
**kern
*ICvox
*Ivox
*M4/4
*k[f#c#]
*D:
{4f#
=1
4a
4f#
4g
4e
=2
4f#
4d
4e}
{4d
=3
4d
4f#
4g
4f#
=4
4e
4c#
4d}
{4f#
=5
4a
4f#
4g
4e
=6
4f#
8d
8d
4e}
{4d
=7
4d
4f#
4g
8f#
8f#
=8
4e
4c#
4d}
==
!!!AGN: Ballade, Entfuehrung, Adelige als Dienstmagd, Rueckkehr
!!!ONB: ESAC (Essen Associative Code) Database: BALLADE
!!!AMT: simple quadruple
!!!AIN: vox
!!!EED: Helmut Schaffrath
!!!EEV: 1.0
*-
